X: 4109
T: LORD OF THE ISLES
R: Strathspey.
%R: strathspey
B: James Kerr "Merry Melodies" v.4 p.14 #109
Z: 2016 John Chambers <jc:trillian.mit.edu>
M: C
L: 1/16
K: G
ud2 |\
gg3 d3B G4 (G3F) | EA3 A3G FD3 D3d |\
gg3 d3B G4 (G3F) | E3A GFED G4- G2 :|
|: B2 |\
dB3 g3f e3dc3B | cA3 a3g fd3 d3f |\
gg3 d3B c3dB3G | E3A GFED G4- G2 :|

%%sep 1 1 500
%%sep 1 1 500

